X:3628
T:Les garçons de la Montagne (version Pauvert)
O:england
M:3/8
L:1/8
K:C
g2a/g/|fd/e/f|d/e/cd|ed2|\
g2a/g/|fd/e/f|d/e/cB|c3:|
|:Gcd|ed/e/f|d/e/cd|ed2|\
Gcd|ed/e/f|d/e/cB|c3:|


